flaticon/user-interface/browser-32.svg

<svg xmlns="http://www.w3.org/2000/svg" width="32" height="32" viewBox="0 0 24 24">
    <path d="M2.800781 1.199219C1.917969 1.199219 1.199219 1.917969 1.199219 2.800781 1.199219 3.683594 1.917969 4.398438 2.800781 4.398438 3.683594 4.398438 4.398438 3.683594 4.398438 2.800781 4.398438 1.917969 3.683594 1.199219 2.800781 1.199219zM2.800781 3.601562C2.359375 3.601562 2 3.242188 2 2.800781 2 2.359375 2.359375 2 2.800781 2 3.242188 2 3.601562 2.359375 3.601562 2.800781 3.601562 3.242188 3.242188 3.601562 2.800781 3.601562zM6.398438 1.199219C5.519531 1.199219 4.800781 1.917969 4.800781 2.800781 4.800781 3.683594 5.519531 4.398438 6.398438 4.398438 7.28125 4.398438 8 3.683594 8 2.800781 8 1.917969 7.28125 1.199219 6.398438 1.199219zM6.398438 3.601562C5.957031 3.601562 5.601562 3.242188 5.601562 2.800781 5.601562 2.359375 5.957031 2 6.398438 2 6.839844 2 7.199219 2.359375 7.199219 2.800781 7.199219 3.242188 6.839844 3.601562 6.398438 3.601562zM10 1.199219C9.117188 1.199219 8.398438 1.917969 8.398438 2.800781 8.398438 3.683594 9.117188 4.398438 10 4.398438 10.882812 4.398438 11.601562 3.683594 11.601562 2.800781 11.601562 1.917969 10.882812 1.199219 10 1.199219zM10 3.601562C9.558594 3.601562 9.199219 3.242188 9.199219 2.800781 9.199219 2.359375 9.558594 2 10 2 10.441406 2 10.800781 2.359375 10.800781 2.800781 10.800781 3.242188 10.441406 3.601562 10 3.601562zM10 3.601562"/>
    <path d="M 0 0 L 0 24 L 24 24 L 24 0 Z M 0.800781 0.800781 L 23.199219 0.800781 L 23.199219 4.800781 L 0.800781 4.800781 Z M 23.199219 23.199219 L 0.800781 23.199219 L 0.800781 5.601562 L 23.199219 5.601562 Z M 23.199219 23.199219"/>
    <path d="M3.199219 10L13.234375 10C13.425781 11.132812 14.414062 12 15.601562 12 16.789062 12 17.773438 11.132812 17.964844 10L20.800781 10C21.019531 10 21.199219 9.820312 21.199219 9.601562 21.199219 9.378906 21.019531 9.199219 20.800781 9.199219L17.964844 9.199219C17.773438 8.066406 16.789062 7.199219 15.601562 7.199219 14.414062 7.199219 13.425781 8.066406 13.234375 9.199219L3.199219 9.199219C2.980469 9.199219 2.800781 9.378906 2.800781 9.601562 2.800781 9.820312 2.980469 10 3.199219 10zM15.601562 8C16.480469 8 17.199219 8.71875 17.199219 9.601562 17.199219 10.480469 16.480469 11.199219 15.601562 11.199219 14.71875 11.199219 14 10.480469 14 9.601562 14 8.71875 14.71875 8 15.601562 8zM20.800781 18.800781L10.765625 18.800781C10.574219 17.667969 9.585938 16.800781 8.398438 16.800781 7.210938 16.800781 6.226562 17.667969 6.035156 18.800781L3.199219 18.800781C2.980469 18.800781 2.800781 18.980469 2.800781 19.199219 2.800781 19.421875 2.980469 19.601562 3.199219 19.601562L6.035156 19.601562C6.226562 20.734375 7.210938 21.601562 8.398438 21.601562 9.585938 21.601562 10.574219 20.734375 10.765625 19.601562L20.800781 19.601562C21.019531 19.601562 21.199219 19.421875 21.199219 19.199219 21.199219 18.980469 21.019531 18.800781 20.800781 18.800781zM8.398438 20.800781C7.519531 20.800781 6.800781 20.082031 6.800781 19.199219 6.800781 18.316406 7.519531 17.601562 8.398438 17.601562 9.28125 17.601562 10 18.316406 10 19.199219 10 20.082031 9.28125 20.800781 8.398438 20.800781zM3.199219 14.800781L9.636719 14.800781C9.828125 15.933594 10.8125 16.800781 12 16.800781 13.1875 16.800781 14.171875 15.933594 14.363281 14.800781L20.800781 14.800781C21.019531 14.800781 21.199219 14.621094 21.199219 14.398438 21.199219 14.179688 21.019531 14 20.800781 14L14.363281 14C14.171875 12.867188 13.1875 12 12 12 10.8125 12 9.828125 12.867188 9.636719 14L3.199219 14C2.980469 14 2.800781 14.179688 2.800781 14.398438 2.800781 14.621094 2.980469 14.800781 3.199219 14.800781zM12 12.800781C12.882812 12.800781 13.601562 13.519531 13.601562 14.398438 13.601562 15.28125 12.882812 16 12 16 11.117188 16 10.398438 15.28125 10.398438 14.398438 10.398438 13.519531 11.117188 12.800781 12 12.800781zM12 12.800781"/>
</svg>

<svg xmlns="http://www.w3.org/2000/svg" width="32" height="32" viewBox="0 0 24 24">
    <path d="M2.8 1.2c-.882 0-1.6.718-1.6 1.6a1.6 1.6 0 1 0 1.6-1.6zm0 2.402A.802.802 0 0 1 2.8 2a.802.802 0 0 1 0 1.602zm0 0M6.398 1.2A1.6 1.6 0 1 0 8 2.801c0-.884-.719-1.603-1.602-1.603zm0 2.402a.799.799 0 0 1-.796-.801.799.799 0 1 1 1.597 0c0 .441-.36.8-.8.8zm0 0M10 1.2c-.883 0-1.602.718-1.602 1.6A1.6 1.6 0 0 0 10 4.399a1.6 1.6 0 0 0 1.602-1.597c0-.883-.72-1.602-1.602-1.602zm0 2.402A.802.802 0 0 1 10 2a.802.802 0 0 1 0 1.602zm0 0"/>
    <path d="M0 0v24h24V0zm.8.8h22.4v4H.8zm22.4 22.4H.8V5.601h22.4zm0 0"/>
    <path d="M3.2 10h10.034c.192 1.133 1.18 2 2.368 2a2.401 2.401 0 0 0 2.363-2H20.8a.4.4 0 0 0 0-.8h-2.836a2.401 2.401 0 0 0-2.363-2 2.405 2.405 0 0 0-2.368 2H3.2a.401.401 0 0 0 0 .8zm12.402-2c.878 0 1.597.719 1.597 1.602 0 .878-.719 1.597-1.597 1.597A1.603 1.603 0 0 1 14 9.602C14 8.719 14.719 8 15.602 8zm0 0M20.8 18.8H10.767a2.405 2.405 0 0 0-2.368-2 2.401 2.401 0 0 0-2.363 2H3.2a.4.4 0 0 0 0 .802h2.836a2.401 2.401 0 0 0 2.363 2 2.405 2.405 0 0 0 2.368-2H20.8a.401.401 0 0 0 0-.801zm-12.402 2A1.6 1.6 0 1 1 10 19.199c0 .884-.719 1.603-1.602 1.603zm0 0M3.2 14.8h6.437a2.401 2.401 0 0 0 2.363 2 2.401 2.401 0 0 0 2.363-2h6.438a.401.401 0 0 0 0-.8h-6.438A2.401 2.401 0 0 0 12 12a2.401 2.401 0 0 0-2.363 2H3.199a.4.4 0 0 0 0 .8zm8.8-2c.883 0 1.602.72 1.602 1.598 0 .883-.72 1.602-1.602 1.602a1.604 1.604 0 0 1-1.602-1.602c0-.878.72-1.597 1.602-1.597zm0 0"/>
</svg>
